X: 35902
T: Sandy MacIntyre's Trip To Boston
R: reel
M: 4/4
K: Amajor
E/E/E CE A,E C/D/E|Acef ec A2|f3 a ec A/B/c|dB c/B/A BF F/G/A|
E/F/E CE A,ECE|Acef ecAe|f2 af ecBc|dfec A/A/A A||
eA c2 ecBc|ABce f2 af|eA c2 ecBc|dfec B3 f|
eAcA ec B/B/B|ABce f3 g|ag f2 fg a/g/f|ecBc A3:|

